app/images/icon/icon-svg/dentistry.svg

<svg width="126" height="110" viewBox="0 0 126 110" fill="none" xmlns="http://www.w3.org/2000/svg">
<path d="M99.4889 29.3333C101.514 29.3333 103.156 27.6917 103.156 25.6667C103.156 23.6416 101.514 22 99.4889 22C97.4639 22 95.8223 23.6416 95.8223 25.6667C95.8223 27.6917 97.4639 29.3333 99.4889 29.3333Z" fill="#FFC59E"/>
<path d="M92.1559 44.0003C94.181 44.0003 95.8226 42.3587 95.8226 40.3337C95.8226 38.3086 94.181 36.667 92.1559 36.667C90.1309 36.667 88.4893 38.3086 88.4893 40.3337C88.4893 42.3587 90.1309 44.0003 92.1559 44.0003Z" fill="#FFC59E"/>
<path d="M106.822 44.0003C108.847 44.0003 110.489 42.3587 110.489 40.3337C110.489 38.3086 108.847 36.667 106.822 36.667C104.797 36.667 103.155 38.3086 103.155 40.3337C103.155 42.3587 104.797 44.0003 106.822 44.0003Z" fill="#FFC59E"/>
<path d="M92.1554 7.33332H86.4066C83.8042 2.94775 79.0229 0 73.564 0H51.5912C46.1322 0 41.3509 2.94775 38.7486 7.33332H33C14.8038 7.33332 0 22.1369 0 40.3333V69.6666C0 72.6041 1.14449 75.3663 3.22251 77.444C4.50535 78.7271 6.04975 79.6528 7.7347 80.1745C8.93834 90.4602 12.8248 100.211 19.0666 108.533C20.8714 110.94 24.6488 110.265 25.5119 107.387L32.3585 84.5645C34.3644 86.6779 37.1966 87.9999 40.3333 87.9999C43.1789 87.9999 45.7753 86.9138 47.7304 85.1343C49.8184 86.9842 52.4687 87.9999 55.2444 87.9999C58.0899 87.9999 60.6864 86.9138 62.6415 85.1343C64.7295 86.9842 67.3798 87.9999 70.1555 87.9999C72.9707 87.9999 75.5411 86.9356 77.4888 85.19C79.4365 86.9358 82.0069 87.9999 84.8221 87.9999C87.9581 87.9999 90.7919 86.6806 92.7976 84.5679L99.6432 107.387C100.508 110.269 104.286 110.937 106.089 108.533C112.33 100.211 116.217 90.4602 117.421 80.1745C119.106 79.6528 120.65 78.7271 121.933 77.444C124.011 75.3663 125.155 72.6041 125.155 69.6668V40.3333C125.155 22.1369 110.352 7.33332 92.1554 7.33332ZM51.5914 7.33332H73.5642C77.7499 7.33332 81.1554 10.7387 81.1554 14.9245C81.1554 16.4281 80.7145 17.8843 79.8804 19.1356L70.4468 33.2862C69.0777 35.3398 66.5025 36.6666 63.886 36.6666H61.2694C58.7091 36.6666 56.0985 35.3708 54.7086 33.2862L45.2747 19.1356C44.4409 17.8845 43.9999 16.4284 43.9999 14.9245C43.9999 10.7387 47.4055 7.33332 51.5914 7.33332ZM7.33332 40.3333C7.33332 26.1807 18.8474 14.6666 33 14.6666H36.6732C36.6718 14.7529 36.6666 14.8382 36.6666 14.9248C36.6666 17.8808 37.5334 20.7438 39.1731 23.2034L48.607 37.354C49.4227 38.5774 50.4281 39.6613 51.5709 40.5816C51.4301 46.4348 46.3432 51.3333 40.3333 51.3333H28.7031C20.9044 51.3333 13.486 53.7933 7.33332 58.3449V40.3333ZM20.7809 97.6366C17.8161 92.1271 15.8889 86.1211 15.0888 79.8816C16.4533 79.3356 17.7068 78.515 18.7775 77.444C21.24 74.9818 24.5955 73.5102 28.0671 73.3494L20.7809 97.6366ZM43.9999 76.9999C43.9999 79.0217 42.3551 80.6666 40.3333 80.6666C38.3115 80.6666 36.6666 79.0217 36.6666 76.9999V73.3332H40.3333C41.5648 73.3332 42.7885 73.2628 43.9999 73.1277V76.9999ZM58.911 76.9999C58.911 79.0217 57.2662 80.6666 55.2444 80.6666C53.161 80.6666 51.3333 78.9532 51.3333 76.9999V71.4466C54.0065 70.5036 56.5541 69.2207 58.911 67.625C58.911 70.6908 58.911 72.8715 58.911 76.9999ZM73.8221 76.9999C73.8221 79.0217 72.1773 80.6666 70.1555 80.6666C68.0721 80.6666 66.2444 78.9532 66.2444 76.9999C66.2444 72.8996 66.2444 70.6864 66.2444 67.625C68.6013 69.2205 71.1489 70.5036 73.8221 71.4466V76.9999ZM88.4888 76.9999C88.4888 79.0217 86.8439 80.6666 84.8221 80.6666C82.8003 80.6666 81.1554 79.0217 81.1554 76.9999V73.1277C82.3669 73.2631 83.5906 73.3332 84.8221 73.3332H88.4888V76.9999ZM104.374 97.6366L97.0883 73.3494C100.56 73.5105 103.915 74.9818 106.378 77.444C107.449 78.515 108.702 79.3356 110.067 79.8816C109.267 86.1211 107.339 92.1271 104.374 97.6366ZM116.747 72.2587C115.308 73.6979 112.986 73.6811 111.563 72.2587C107.586 68.2811 102.078 65.9999 96.4523 65.9999H84.8221C77.3717 65.9999 70.2706 62.762 65.3392 57.1168C64.6428 56.3197 63.6361 55.8623 62.5777 55.8623C61.5193 55.8623 60.5126 56.3197 59.8162 57.1168C54.8848 62.762 47.7835 65.9999 40.3333 65.9999H32.9887C32.9738 65.9999 32.9586 65.9997 32.9437 65.9999H28.7031C23.0775 65.9999 17.5699 68.2813 13.5923 72.2587C12.1736 73.6769 9.85134 73.7019 8.4079 72.2587C6.97864 70.8291 6.97864 68.5038 8.40863 67.0735C13.8267 61.6522 21.0342 58.6666 28.7031 58.6666H40.3333C45.2241 58.6666 49.8593 56.7685 53.3854 53.3221C56.1024 50.6662 57.8851 47.353 58.5803 43.7604C59.4625 43.9173 60.3623 43.9999 61.2694 43.9999H63.886C64.873 43.9999 65.8511 43.9027 66.8071 43.7174C68.4001 52.2145 75.8696 58.6666 84.8221 58.6666H96.4523C104.121 58.6666 111.329 61.6522 116.747 67.0745C118.177 68.5038 118.177 70.8294 116.747 72.2587ZM117.822 58.3449C111.669 53.7931 104.251 51.3333 96.4523 51.3333H84.8221C78.7746 51.3333 73.8524 46.4273 73.8233 40.3863C74.8679 39.509 75.7899 38.4916 76.5484 37.354L85.9822 23.2034C87.622 20.7435 88.4888 17.8808 88.4888 14.9245C88.4888 14.838 88.4836 14.7527 88.4822 14.6664H92.1554C106.308 14.6664 117.822 26.1805 117.822 40.333V58.3449Z" fill="#FFC59E"/>
<path d="M25.6667 29.3333C27.6917 29.3333 29.3333 27.6917 29.3333 25.6667C29.3333 23.6416 27.6917 22 25.6667 22C23.6416 22 22 23.6416 22 25.6667C22 27.6917 23.6416 29.3333 25.6667 29.3333Z" fill="#FFC59E"/>
<path d="M18.3337 44.0003C20.3587 44.0003 22.0003 42.3587 22.0003 40.3337C22.0003 38.3086 20.3587 36.667 18.3337 36.667C16.3086 36.667 14.667 38.3086 14.667 40.3337C14.667 42.3587 16.3086 44.0003 18.3337 44.0003Z" fill="#FFC59E"/>
<path d="M33.0006 44.0003C35.0257 44.0003 36.6673 42.3587 36.6673 40.3337C36.6673 38.3086 35.0257 36.667 33.0006 36.667C30.9756 36.667 29.334 38.3086 29.334 40.3337C29.334 42.3587 30.9756 44.0003 33.0006 44.0003Z" fill="#FFC59E"/>
</svg>

<svg width="126" height="110" fill="none" xmlns="http://www.w3.org/2000/svg"><path d="M99.489 29.333a3.667 3.667 0 100-7.334 3.667 3.667 0 000 7.334zM92.156 44a3.667 3.667 0 100-7.333 3.667 3.667 0 000 7.333zm14.666 0a3.667 3.667 0 100-7.334 3.667 3.667 0 000 7.334z" fill="#FFC59E"/><path d="M92.155 7.333h-5.748C83.804 2.948 79.023 0 73.564 0H51.591c-5.459 0-10.24 2.948-12.842 7.333H33c-18.196 0-33 14.804-33 33v29.334c0 2.937 1.144 5.7 3.223 7.777a10.947 10.947 0 004.512 2.73 58.507 58.507 0 0011.332 28.359c1.804 2.407 5.582 1.732 6.445-1.146l6.846-22.823A10.968 10.968 0 0040.334 88c2.846 0 5.442-1.086 7.397-2.866A11.293 11.293 0 0055.244 88c2.846 0 5.442-1.086 7.398-2.866A11.293 11.293 0 0070.156 88c2.815 0 5.385-1.064 7.333-2.81A10.954 10.954 0 0084.822 88c3.136 0 5.97-1.32 7.976-3.432l6.845 22.819c.865 2.882 4.643 3.55 6.446 1.146a58.518 58.518 0 0011.332-28.359 10.947 10.947 0 004.512-2.73 10.926 10.926 0 003.222-7.777V40.333c0-18.196-14.803-33-33-33zm-40.564 0h21.973c4.186 0 7.591 3.406 7.591 7.591 0 1.504-.44 2.96-1.275 4.212l-9.433 14.15c-1.37 2.054-3.945 3.38-6.561 3.38h-2.617c-2.56 0-5.17-1.295-6.56-3.38l-9.434-14.15A7.57 7.57 0 0144 14.925c0-4.186 3.406-7.592 7.591-7.592zm-44.258 33c0-14.152 11.514-25.666 25.667-25.666h3.673c-.001.086-.006.171-.006.258 0 2.956.866 5.819 2.506 8.278l9.434 14.151a14.437 14.437 0 002.964 3.228c-.14 5.853-5.228 10.751-11.238 10.751h-11.63c-7.799 0-15.217 2.46-21.37 7.012V40.333zm13.448 57.304a51.159 51.159 0 01-5.692-17.755 10.972 10.972 0 003.688-2.438 14.142 14.142 0 019.29-4.095l-7.286 24.288zM44 77a3.67 3.67 0 01-3.667 3.667A3.67 3.67 0 0136.667 77v-3.667h3.666c1.232 0 2.456-.07 3.667-.205V77zm14.911 0a3.67 3.67 0 01-3.667 3.667c-2.083 0-3.91-1.714-3.91-3.667v-5.553a33.242 33.242 0 007.577-3.822V77zm14.911 0a3.67 3.67 0 01-3.666 3.667c-2.084 0-3.912-1.714-3.912-3.667v-9.375a33.25 33.25 0 007.578 3.822V77zm14.667 0a3.67 3.67 0 01-3.667 3.667A3.67 3.67 0 0181.155 77v-3.872c1.212.135 2.436.205 3.667.205h3.667V77zm15.885 20.637l-7.286-24.288a14.145 14.145 0 019.29 4.095 10.972 10.972 0 003.689 2.438 51.154 51.154 0 01-5.693 17.755zm12.373-25.378a3.667 3.667 0 01-5.184 0 21.517 21.517 0 00-15.11-6.26h-11.63c-7.451 0-14.552-3.237-19.484-8.882a3.667 3.667 0 00-5.523 0C54.885 62.762 47.783 66 40.333 66H28.704a21.519 21.519 0 00-15.112 6.259 3.668 3.668 0 01-5.184 0 3.67 3.67 0 010-5.186c5.419-5.42 12.626-8.406 20.295-8.406h11.63c4.891 0 9.526-1.898 13.052-5.345 2.717-2.656 4.5-5.969 5.195-9.562.883.157 1.782.24 2.69.24h2.616c.987 0 1.965-.097 2.921-.283 1.593 8.498 9.063 14.95 18.015 14.95h11.63c7.669 0 14.877 2.985 20.295 8.407a3.669 3.669 0 010 5.185zm1.075-13.914c-6.153-4.552-13.571-7.012-21.37-7.012h-11.63c-6.047 0-10.97-4.906-10.999-10.947a14.397 14.397 0 002.725-3.032l9.434-14.15a14.879 14.879 0 002.507-8.28c0-.086-.005-.171-.007-.258h3.673c14.153 0 25.667 11.514 25.667 25.667v18.012z" fill="#FFC59E"/><path d="M25.667 29.333a3.667 3.667 0 100-7.333 3.667 3.667 0 000 7.333zM18.334 44a3.667 3.667 0 100-7.333 3.667 3.667 0 000 7.333zM33 44a3.667 3.667 0 100-7.333A3.667 3.667 0 0033 44z" fill="#FFC59E"/></svg>
